X:7
T:C'est Toi, Seigneur, qui nous a choisis - A128
C:C. Tassin
M:4/4
L:1/8
K:C
z2C2"Do"C2DE-|"Lam"E4EFEF|"Mim"G4"Do"zE FG|"Sol"A2G2"La7"zFE2|"Rem"D4"Fa7M"z2AG|
"Rem"A2Bc"Mim"B3A|"Fa9"G2F2"Do"G4-|G2z2||"Mi7"E2E2|"Lam"A2A2"Mi"BABc-|"Lam"c4"Si7"c2c2|
"Mi"B2BA-"Fa"A4-|"La"A4"La7"E2E2|"Rem"A2A2"Do7"GAGF-|"Fa"F2F2"Fa7"F2F2|"Re7"A2AE-"Mi"E4|\
z2||
